X: 8805
T: Cuddy Clauder
R: three-two
M: 3/2
K: Gmajor
[M:6/4]|:G2|B3cd2 d2BcdB|d2g4 B4G2|B3cd2 d2BcdB|A2f4 A4e2|
B3cd2 d2BcdB|g2d2e2 g3dB2|cBABcA dcBcdB|A2f4 A4:|
|:f2|g3de2 g2d2B2|(3defg4 B4G2|g3de2 g2d2B2|A2f4 A4f2|
g3de2 g2d2B2|d2efgf g2d2B2|cBABcA dcBcdB|A2f4 A4:|

